contributed-vectors/pixel_studio.svg

<?xml version="1.0" encoding="UTF-8" standalone="no"?>
<svg
   xmlns:dc="http://purl.org/dc/elements/1.1/"
   xmlns:cc="http://creativecommons.org/ns#"
   xmlns:rdf="http://www.w3.org/1999/02/22-rdf-syntax-ns#"
   xmlns:svg="http://www.w3.org/2000/svg"
   xmlns="http://www.w3.org/2000/svg"
   xmlns:sodipodi="http://sodipodi.sourceforge.net/DTD/sodipodi-0.dtd"
   xmlns:inkscape="http://www.inkscape.org/namespaces/inkscape"
   width="100%"
   height="100%"
   viewBox="0 0 192 192"
   version="1.1"
   xml:space="preserve"
   style="fill-rule:evenodd;clip-rule:evenodd;stroke-linecap:round;stroke-linejoin:round;stroke-miterlimit:1.5;"
   id="svg9"
   sodipodi:docname="pixel_studio.svg"
   inkscape:version="0.92.5 (2060ec1f9f, 2020-04-08)"><metadata
   id="metadata15"><rdf:RDF><cc:Work
       rdf:about=""><dc:format>image/svg+xml</dc:format><dc:type
         rdf:resource="http://purl.org/dc/dcmitype/StillImage" /><dc:title></dc:title></cc:Work></rdf:RDF></metadata><defs
   id="defs13">
        
        
    
            
        </defs><sodipodi:namedview
   pagecolor="#ffffff"
   bordercolor="#666666"
   borderopacity="1"
   objecttolerance="10"
   gridtolerance="10"
   guidetolerance="10"
   inkscape:pageopacity="0"
   inkscape:pageshadow="2"
   inkscape:window-width="1280"
   inkscape:window-height="745"
   id="namedview11"
   showgrid="true"
   inkscape:zoom="19.666667"
   inkscape:cx="28.883378"
   inkscape:cy="25.71599"
   inkscape:window-x="-12"
   inkscape:window-y="-2"
   inkscape:window-maximized="1"
   inkscape:current-layer="svg9"><inkscape:grid
     type="xygrid"
     id="grid825" /></sodipodi:namedview>
    <path
   style="fill:#ff837d"
   d="M 29.5 19.5 C 23.981 19.5 19.5 23.981 19.5 29.5 L 19.5 57.75 L 70 122 L 134.25 172.5 L 162.5 172.5 C 168.019 172.5 172.5 168.019 172.5 162.5 L 172.5 134.25 L 122 70 L 57.75 19.5 L 29.5 19.5 z "
   id="path2" /><path
   style="opacity:1;vector-effect:none;fill:#f8c18c;fill-opacity:1;stroke-width:38.25;paint-order:stroke fill markers"
   d="M 57.75 19.5 L 57.75 57.75 L 96 57.75 L 96 96 L 134.25 96 L 134.25 134.25 L 172.5 134.25 L 172.5 96 L 142 50 L 96 19.5 L 57.75 19.5 z "
   id="rect1015" /><path
   style="opacity:1;vector-effect:none;fill:#bd9aff;fill-opacity:1;stroke-width:38.25;paint-order:stroke fill markers"
   d="M 19.5 57.75 L 19.5 96 L 50 142 L 96 172.5 L 134.25 172.5 L 134.25 134.25 L 96 134.25 L 96 96 L 57.75 96 L 57.75 57.75 L 19.5 57.75 z "
   id="rect1015-2" /><path
   style="opacity:1;vector-effect:none;fill:#8c72bd;fill-opacity:1;stroke-width:38.25;paint-order:stroke fill markers"
   d="M 19.5 96 L 19.5 134.25 L 57.75 172.5 L 96 172.5 L 96 134.25 L 57.75 134.25 L 57.75 96 L 19.5 96 z "
   id="rect1037" /><path
   style="opacity:1;vector-effect:none;fill:#f9de81;fill-opacity:1;stroke-width:38.25;paint-order:stroke fill markers"
   d="M 96 19.5 L 96 57.75 L 134.25 57.75 L 134.25 96 L 172.5 96 L 172.5 57.75 L 134.25 19.5 L 96 19.5 z "
   id="rect1037-9" /><path
   style="opacity:1;vector-effect:none;fill:#54688c;fill-opacity:1;stroke-width:38.25;paint-order:stroke fill markers"
   d="M 19.5 134.25 L 19.5 162.5 C 19.5 168.019 23.981 172.5 29.5 172.5 L 30.970703 172.5 L 39 167 L 44.029297 172.5 L 57.75 172.5 L 57.75 134.25 L 19.5 134.25 z "
   id="rect1057" /><path
   style="opacity:1;vector-effect:none;fill:#98dc9a;fill-opacity:1;stroke-width:38.25;paint-order:stroke fill markers"
   d="M 134.25 19.5 L 134.25 57.75 L 172.5 57.75 L 172.5 29.5 C 172.5 23.981 168.019 19.5 162.5 19.5 L 134.25 19.5 z "
   id="rect1059" />
<path
   style="color:#000000;font-style:normal;font-variant:normal;font-weight:normal;font-stretch:normal;font-size:medium;line-height:normal;font-family:sans-serif;font-variant-ligatures:normal;font-variant-position:normal;font-variant-caps:normal;font-variant-numeric:normal;font-variant-alternates:normal;font-feature-settings:normal;text-indent:0;text-align:start;text-decoration:none;text-decoration-line:none;text-decoration-style:solid;text-decoration-color:#000000;letter-spacing:normal;word-spacing:normal;text-transform:none;writing-mode:lr-tb;direction:ltr;text-orientation:mixed;dominant-baseline:auto;baseline-shift:baseline;text-anchor:start;white-space:normal;shape-padding:0;clip-rule:nonzero;display:inline;overflow:visible;visibility:visible;opacity:1;isolation:auto;mix-blend-mode:normal;color-interpolation:sRGB;color-interpolation-filters:linearRGB;solid-color:#000000;solid-opacity:1;vector-effect:none;fill:#ffffff;fill-opacity:1;fill-rule:nonzero;stroke:none;stroke-width:12;stroke-linecap:round;stroke-linejoin:miter;stroke-miterlimit:4;stroke-dasharray:none;stroke-dashoffset:0;stroke-opacity:1;color-rendering:auto;image-rendering:auto;shape-rendering:auto;text-rendering:auto;enable-background:accumulate"
   d="M 111.24023 108.25781 A 6.0006 6.0006 0 0 0 105.48633 112.01367 L 97.712891 128.12695 A 6.0006 6.0006 0 1 0 108.52148 133.33984 L 109.35938 131.60547 C 109.60437 131.82758 109.87445 132.0663 110.10547 132.28711 C 112.60843 134.67952 113.99429 136.16448 113.80859 139.61523 C 113.6751 142.09585 113.10028 143.32089 109.5625 143.5918 C 104.82327 143.95473 99.747157 143.5157 94.304688 143.29102 A 6.0006 6.0006 0 1 0 93.810547 155.28125 C 98.850484 155.48934 104.42763 156.02002 110.47852 155.55664 C 119.08451 154.89763 125.3854 147.83331 125.79297 140.25977 C 126.21799 132.36192 121.65156 126.72457 118.39648 123.61328 C 117.00754 122.28569 116.07184 121.4358 115.49023 120.8457 C 116.09714 118.61872 116.67207 116.45191 116.75586 116.13672 A 6.0006 6.0006 0 0 0 113.56055 108.80664 A 6.0006 6.0006 0 0 0 113.03516 108.59375 A 6.0006 6.0006 0 0 0 113.02734 108.5918 A 6.0006 6.0006 0 0 0 112.68555 108.49023 A 6.0006 6.0006 0 0 0 112.44336 108.41992 A 6.0006 6.0006 0 0 0 111.24023 108.25781 z M 70.25 112.49414 C 69.857657 112.49018 69.469334 112.49782 69.085938 112.51758 C 66.414147 112.65525 63.976947 113.34688 62.017578 114.26758 A 6.0006 6.0006 0 0 0 59.972656 113.92188 A 6.0006 6.0006 0 0 0 54.484375 117.63672 L 30.970703 172.5 L 44.029297 172.5 L 53.222656 151.04883 C 54.08159 151.3881 55.018225 151.7426 56.039062 152.0918 C 59.740952 153.3581 63.970683 154.94998 69.205078 153.87695 C 74.124978 152.8684 78.199384 150.89502 80.974609 147.76758 C 83.749835 144.64014 84.908122 141.01995 85.8125 137.48828 C 86.482357 134.87243 87.606711 131.26878 87.199219 126.9082 C 86.791727 122.54763 83.932334 117.4605 78.847656 114.71875 C 75.944295 113.15322 72.996399 112.52183 70.25 112.49414 z M 69.560547 124.29297 C 70.527238 124.22047 71.648707 124.47047 73.152344 125.28125 C 75.303338 126.4411 75.125468 126.69082 75.25 128.02344 C 75.374532 129.35605 74.881411 131.80193 74.1875 134.51172 C 73.438054 137.43837 72.739409 138.96948 72 139.80273 C 71.260591 140.63598 70.162658 141.43268 66.794922 142.12305 C 66.643833 142.15405 62.873614 141.74603 59.921875 140.73633 C 59.748363 140.67693 59.778507 140.66932 59.609375 140.60938 L 64.537109 127.00977 C 64.98614 126.54941 65.701628 125.88633 66.894531 125.24023 C 67.781362 124.75991 68.593856 124.36542 69.560547 124.29297 z "
   id="path1063" /></svg>

<svg xmlns="http://www.w3.org/2000/svg" xml:space="preserve" style="fill-rule:evenodd;clip-rule:evenodd;stroke-linecap:round;stroke-linejoin:round;stroke-miterlimit:1.5" viewBox="0 0 192 192"><path d="M29.5 19.5c-5.519 0-10 4.481-10 10v28.25L70 122l64.25 50.5h28.25c5.519 0 10-4.481 10-10v-28.25L122 70 57.75 19.5H29.5z" style="fill:#ff837d"/><path d="M57.75 19.5v38.25H96V96h38.25v38.25h38.25V96L142 50 96 19.5H57.75z" style="opacity:1;vector-effect:none;fill:#f8c18c;fill-opacity:1;stroke-width:38.25;paint-order:stroke fill markers"/><path d="M19.5 57.75V96L50 142l46 30.5h38.25v-38.25H96V96H57.75V57.75H19.5z" style="opacity:1;vector-effect:none;fill:#bd9aff;fill-opacity:1;stroke-width:38.25;paint-order:stroke fill markers"/><path d="M19.5 96v38.25l38.25 38.25H96v-38.25H57.75V96H19.5z" style="opacity:1;vector-effect:none;fill:#8c72bd;fill-opacity:1;stroke-width:38.25;paint-order:stroke fill markers"/><path d="M96 19.5v38.25h38.25V96h38.25V57.75L134.25 19.5H96z" style="opacity:1;vector-effect:none;fill:#f9de81;fill-opacity:1;stroke-width:38.25;paint-order:stroke fill markers"/><path d="M19.5 134.25v28.25c0 5.519 4.481 10 10 10h1.47L39 167l5.03 5.5h13.72v-38.25H19.5z" style="opacity:1;vector-effect:none;fill:#54688c;fill-opacity:1;stroke-width:38.25;paint-order:stroke fill markers"/><path d="M134.25 19.5v38.25h38.25V29.5c0-5.519-4.481-10-10-10h-28.25z" style="opacity:1;vector-effect:none;fill:#98dc9a;fill-opacity:1;stroke-width:38.25;paint-order:stroke fill markers"/><path d="M111.24 108.258a6 6 0 0 0-5.754 3.756l-7.773 16.113a6 6 0 1 0 10.808 5.213l.838-1.735c.245.223.515.461.746.682 2.503 2.393 3.89 3.877 3.704 7.328-.134 2.48-.709 3.706-4.246 3.977-4.74.363-9.816-.076-15.258-.301a6 6 0 1 0-.494 11.99c5.04.208 10.617.739 16.668.276 8.606-.66 14.906-7.724 15.314-15.297.425-7.898-4.141-13.535-7.397-16.647-1.388-1.327-2.324-2.177-2.906-2.767.607-2.227 1.182-4.394 1.266-4.71a6 6 0 0 0-3.195-7.33 6 6 0 0 0-.526-.212 6 6 0 0 0-.008-.002 6 6 0 0 0-.341-.102 6 6 0 0 0-.243-.07 6 6 0 0 0-1.203-.162zm-40.99 4.236a19.103 19.103 0 0 0-8.232 1.773 6 6 0 0 0-2.045-.345 6 6 0 0 0-5.489 3.715L30.971 172.5h13.058l9.194-21.451c.859.34 1.795.694 2.816 1.043 3.702 1.266 7.932 2.858 13.166 1.785 4.92-1.009 8.994-2.982 11.77-6.11 2.775-3.127 3.933-6.747 4.838-10.279.67-2.616 1.794-6.22 1.386-10.58-.407-4.36-3.267-9.448-8.351-12.19a18.373 18.373 0 0 0-8.598-2.224zm-.69 11.799c.967-.073 2.089.177 3.592.988 2.151 1.16 1.973 1.41 2.098 2.742.125 1.333-.369 3.779-1.063 6.489-.749 2.926-1.448 4.457-2.187 5.29-.74.834-1.837 1.63-5.205 2.321-.151.031-3.921-.377-6.873-1.387-.174-.06-.143-.067-.313-.127l4.928-13.6a9.464 9.464 0 0 1 2.358-1.769c.886-.48 1.699-.875 2.666-.947z" style="color:#000;font-style:normal;font-variant:normal;font-weight:400;font-stretch:normal;font-size:medium;line-height:normal;font-family:sans-serif;font-variant-ligatures:normal;font-variant-position:normal;font-variant-caps:normal;font-variant-numeric:normal;font-variant-alternates:normal;font-feature-settings:normal;text-indent:0;text-align:start;text-decoration:none;text-decoration-line:none;text-decoration-style:solid;text-decoration-color:#000;letter-spacing:normal;word-spacing:normal;text-transform:none;writing-mode:lr-tb;direction:ltr;text-orientation:mixed;dominant-baseline:auto;baseline-shift:baseline;text-anchor:start;white-space:normal;shape-padding:0;clip-rule:nonzero;display:inline;overflow:visible;visibility:visible;opacity:1;isolation:auto;mix-blend-mode:normal;color-interpolation:sRGB;color-interpolation-filters:linearRGB;solid-color:#000;solid-opacity:1;vector-effect:none;fill:#fff;fill-opacity:1;fill-rule:nonzero;stroke:none;stroke-width:12;stroke-linecap:round;stroke-linejoin:miter;stroke-miterlimit:4;stroke-dasharray:none;stroke-dashoffset:0;stroke-opacity:1;color-rendering:auto;image-rendering:auto;shape-rendering:auto;text-rendering:auto;enable-background:accumulate"/></svg>
